images/decorative/skills/git-icon.svg

<svg width="512" height="512" fill="none" xmlns="http://www.w3.org/2000/svg"><g clip-path="url(#a)"><path fill-rule="evenodd" clip-rule="evenodd" d="M494.662 233.836 277.204 16.394c-12.514-12.525-32.827-12.525-45.358 0l-45.155 45.155 57.282 57.281c13.312-4.497 28.575-1.481 39.187 9.132 10.662 10.678 13.657 26.072 9.05 39.428l55.205 55.205c13.356-4.602 28.766-1.623 39.433 9.06 14.908 14.903 14.908 39.057 0 53.97-14.913 14.913-39.067 14.913-53.986 0-11.214-11.225-13.984-27.695-8.306-41.51l-51.484-51.483-.005 135.481a38.58 38.58 0 0 1 10.093 7.219c14.908 14.902 14.908 39.057 0 53.981-14.913 14.908-39.078 14.908-53.969 0-14.908-14.924-14.908-39.079 0-53.981a38.227 38.227 0 0 1 12.492-8.328V190.26a37.688 37.688 0 0 1-12.492-8.328c-11.296-11.28-14.012-27.854-8.225-41.724l-56.461-56.472L15.399 232.83c-12.53 12.536-12.53 32.849 0 45.374l217.458 217.447c12.52 12.525 32.827 12.525 45.363 0l216.442-216.436c12.525-12.531 12.525-32.854 0-45.379Z" fill="#DE4C36"/></g><defs><clipPath id="a"><path fill="#fff" transform="translate(6 7)" d="M0 0h500v498.054H0z"/></clipPath></defs></svg>

<svg width="512" height="512" viewBox="0 0 512 512" fill="none" xmlns="http://www.w3.org/2000/svg">
<g clip-path="url(#clip0_308_2913)">
<path fill-rule="evenodd" clip-rule="evenodd" d="M494.662 233.836L277.204 16.3939C264.69 3.86871 244.377 3.86871 231.846 16.3939L186.691 61.549L243.973 118.83C257.285 114.333 272.548 117.349 283.16 127.962C293.822 138.64 296.817 154.034 292.21 167.39L347.415 222.595C360.771 217.993 376.181 220.972 386.848 231.655C401.756 246.558 401.756 270.712 386.848 285.625C371.935 300.538 347.781 300.538 332.862 285.625C321.648 274.4 318.878 257.93 324.556 244.115L273.072 192.632L273.067 328.113C276.701 329.917 280.133 332.316 283.16 335.332C298.068 350.234 298.068 374.389 283.16 389.313C268.247 404.221 244.082 404.221 229.191 389.313C214.283 374.389 214.283 350.234 229.191 335.332C232.874 331.654 237.136 328.873 241.683 327.004V190.26C237.136 188.402 232.879 185.637 229.191 181.932C217.895 170.652 215.179 154.078 220.966 140.208L164.505 83.7358L15.3993 232.83C2.86868 245.366 2.86868 265.679 15.3993 278.204L232.857 495.651C245.377 508.176 265.684 508.176 278.22 495.651L494.662 279.215C507.187 266.684 507.187 246.361 494.662 233.836Z" fill="#DE4C36"/>
</g>
<defs>
<clipPath id="clip0_308_2913">
<rect width="500" height="498.054" fill="white" transform="translate(6 7)"/>
</clipPath>
</defs>
</svg>
